packages/katcn/src/icons/svg/beaker-solid.svg

<svg width="24" height="25" viewBox="0 0 24 25" fill="none" xmlns="http://www.w3.org/2000/svg">
<path d="M14.9 8.11384V3.1811H15.8C16.4 3.1811 16.8 2.78648 16.8 2.19455C16.8 1.60263 16.4 1.20801 15.8 1.20801H13.9H10.1H8.3C7.7 1.20801 7.3 1.60263 7.3 2.19455C7.3 2.78648 7.7 3.1811 8.3 3.1811H9.2V8.11384C6.1 9.19904 4 12.1587 4 15.4143C4 19.7551 7.6 23.208 12 23.208C16.4 23.208 20 19.7551 20 15.4143C20 12.1587 17.9 9.19904 14.9 8.11384Z" fill="black"/>
</svg>

<svg xmlns="http://www.w3.org/2000/svg" fill="none" viewBox="0 0 24 25"><path fill="#000" d="M14.9 8.114V3.18h.9c.6 0 1-.395 1-.986 0-.592-.4-.987-1-.987H8.3c-.6 0-1 .395-1 .987 0 .591.4.986 1 .986h.9v4.933C6.1 9.199 4 12.159 4 15.414c0 4.341 3.6 7.794 8 7.794s8-3.453 8-7.794c0-3.255-2.1-6.215-5.1-7.3"/></svg>
